packages/core/src/svgs/etp.svg

<svg width="24" height="24" viewBox="0 0 24 24" fill="none" xmlns="http://www.w3.org/2000/svg">
<g clip-path="url(#clip0_31_10120)">
<path d="M0 0H24V24H0V0Z" fill="#16328D"/>
<path d="M13.2856 9.57332V14.618C13.2886 14.6742 13.2755 14.73 13.2477 14.7789C13.22 14.8278 13.1789 14.8678 13.1292 14.894C12.6976 15.1486 12.0312 15.4246 11.5713 15.7075V10.5993C11.5713 10.4647 11.5503 10.3867 11.423 10.3233C11.423 10.3233 10.8235 9.89903 10.4485 9.68646C10.406 9.65817 10.3495 9.6436 10.2856 9.61574V14.1933C10.2856 14.342 10.2573 14.42 10.1373 14.4907C9.76231 14.696 9.13359 14.915 8.76588 15.1276L8.57131 15.2262V10.6139C8.57131 10.4369 8.52502 10.352 8.38317 10.274C7.97302 10.0477 7.68717 9.80003 7.26245 9.55232C7.73645 9.27632 8.18945 9.0076 8.65659 8.75303C8.69902 8.7316 8.78388 8.75989 8.84045 8.79546L10.1866 9.4816C10.2787 9.53817 10.3495 9.55232 10.4485 9.4816C10.8166 9.26217 11.048 9.05732 11.4157 8.8306C11.5503 8.74574 11.6425 8.75989 11.7697 8.8306L13.2856 9.57332ZM13.2779 9.58017L13.3765 9.4816C13.7733 9.25446 14.2443 9.02132 14.6476 8.80189C14.6866 8.78452 14.7288 8.77554 14.7715 8.77554C14.8141 8.77554 14.8563 8.78452 14.8953 8.80189C15.3055 9.02132 15.7722 9.25489 16.1682 9.49532C16.2252 9.5236 16.2856 9.61532 16.2856 9.67232V14.2713C16.2856 14.3142 16.2745 14.3913 16.2393 14.4127C15.779 14.6887 15.0667 14.9506 14.5713 15.2335V10.5779C14.5713 10.4579 14.546 10.3799 14.4329 10.3165C14.0013 10.0756 13.7172 9.82103 13.2856 9.57332L13.2779 9.58017Z" fill="white"/>
<path d="M11.1708 6.13745C11.509 6.13745 11.7832 5.86326 11.7832 5.52503C11.7832 5.18679 11.509 4.9126 11.1708 4.9126C10.8325 4.9126 10.5583 5.18679 10.5583 5.52503C10.5583 5.86326 10.8325 6.13745 11.1708 6.13745Z" fill="#E3953B"/>
<path d="M14.6907 6.52979C14.9636 6.52979 15.1848 6.30855 15.1848 6.03565C15.1848 5.76274 14.9636 5.5415 14.6907 5.5415C14.4178 5.5415 14.1965 5.76274 14.1965 6.03565C14.1965 6.30855 14.4178 6.52979 14.6907 6.52979Z" fill="#E5C148"/>
<path d="M17.2225 8.56227C17.4311 8.56227 17.6001 8.39323 17.6001 8.1847C17.6001 7.97617 17.4311 7.80713 17.2225 7.80713C17.014 7.80713 16.845 7.97617 16.845 8.1847C16.845 8.39323 17.014 8.56227 17.2225 8.56227Z" fill="#E5C148"/>
<path d="M18.3146 12.2244C18.797 12.2244 19.188 11.8333 19.188 11.351C19.188 10.8686 18.797 10.4775 18.3146 10.4775C17.8322 10.4775 17.4412 10.8686 17.4412 11.351C17.4412 11.8333 17.8322 12.2244 18.3146 12.2244Z" fill="#27608C"/>
<path d="M5.95155 10.5598C6.45523 10.5598 6.86355 10.1515 6.86355 9.64784C6.86355 9.14416 6.45523 8.73584 5.95155 8.73584C5.44787 8.73584 5.03955 9.14416 5.03955 9.64784C5.03955 10.1515 5.44787 10.5598 5.95155 10.5598Z" fill="#DC6E32"/>
<path d="M17.8735 15.4882C18.3062 15.4882 18.6569 15.1375 18.6569 14.7048C18.6569 14.2721 18.3062 13.9214 17.8735 13.9214C17.4408 13.9214 17.0901 14.2721 17.0901 14.7048C17.0901 15.1375 17.4408 15.4882 17.8735 15.4882Z" fill="#3F8EB9"/>
<path d="M8.00023 7.60299C8.4329 7.60299 8.78365 7.25224 8.78365 6.81956C8.78365 6.38689 8.4329 6.03613 8.00023 6.03613C7.56755 6.03613 7.2168 6.38689 7.2168 6.81956C7.2168 7.25224 7.56755 7.60299 8.00023 7.60299Z" fill="#DC6E32"/>
<path d="M15.8495 17.9172C16.1733 17.9172 16.4358 17.6547 16.4358 17.3309C16.4358 17.0071 16.1733 16.7446 15.8495 16.7446C15.5257 16.7446 15.2632 17.0071 15.2632 17.3309C15.2632 17.6547 15.5257 17.9172 15.8495 17.9172Z" fill="#3F8EB9"/>
<path d="M12.8356 19.0702C13.1388 19.0702 13.3846 18.8244 13.3846 18.5212C13.3846 18.218 13.1388 17.9722 12.8356 17.9722C12.5324 17.9722 12.2866 18.218 12.2866 18.5212C12.2866 18.8244 12.5324 19.0702 12.8356 19.0702Z" fill="#3F8EB9"/>
<path d="M9.61973 18.4738C9.85643 18.4738 10.0483 18.282 10.0483 18.0453C10.0483 17.8086 9.85643 17.6167 9.61973 17.6167C9.38304 17.6167 9.19116 17.8086 9.19116 18.0453C9.19116 18.282 9.38304 18.4738 9.61973 18.4738Z" fill="#3F8EB9"/>
<path d="M6.71953 17.006C7.24002 17.006 7.66196 16.584 7.66196 16.0635C7.66196 15.543 7.24002 15.1211 6.71953 15.1211C6.19904 15.1211 5.7771 15.543 5.7771 16.0635C5.7771 16.584 6.19904 17.006 6.71953 17.006Z" fill="#CC3D27"/>
<path d="M5.37074 13.9856C5.92862 13.9856 6.38088 13.5334 6.38088 12.9755C6.38088 12.4176 5.92862 11.9653 5.37074 11.9653C4.81285 11.9653 4.3606 12.4176 4.3606 12.9755C4.3606 13.5334 4.81285 13.9856 5.37074 13.9856Z" fill="#CB362A"/>
</g>
<defs>
<clipPath id="clip0_31_10120">
<rect width="24" height="24" fill="white"/>
</clipPath>
</defs>
</svg>

<svg xmlns="http://www.w3.org/2000/svg" width="24" height="24" fill="none" viewBox="0 0 24 24"><g clip-path="url(#a)"><path fill="#16328D" d="M0 0h24v24H0z"/><path fill="#fff" d="M13.286 9.573v5.045a.29.29 0 0 1-.157.276c-.431.255-1.098.53-1.558.813V10.6c0-.134-.02-.212-.148-.276 0 0-.6-.424-.975-.637-.042-.028-.098-.042-.162-.07v4.577c0 .149-.029.227-.149.298-.375.205-1.003.424-1.371.637l-.195.098v-4.612c0-.177-.046-.262-.188-.34-.41-.226-.696-.474-1.12-.722.473-.276.926-.544 1.394-.799.042-.021.127.007.183.042l1.347.687c.092.056.163.07.261 0 .369-.22.6-.425.968-.651.134-.085.226-.071.354 0zm-.008.007.098-.098c.397-.228.868-.46 1.272-.68a.3.3 0 0 1 .247 0c.41.22.877.453 1.273.693.057.029.118.12.118.177v4.6c0 .042-.012.12-.047.14-.46.277-1.172.539-1.668.821v-4.655c0-.12-.025-.198-.138-.261-.432-.241-.716-.496-1.147-.744z"/><path fill="#E3953B" d="M11.17 6.137a.612.612 0 1 0 0-1.224.612.612 0 0 0 0 1.224"/><path fill="#E5C148" d="M14.69 6.53a.494.494 0 1 0 0-.988.494.494 0 0 0 0 .988M17.223 8.562a.378.378 0 1 0 0-.755.378.378 0 0 0 0 .755"/><path fill="#27608C" d="M18.315 12.224a.873.873 0 1 0 0-1.746.873.873 0 0 0 0 1.746"/><path fill="#DC6E32" d="M5.952 10.56a.912.912 0 1 0 0-1.824.912.912 0 0 0 0 1.824"/><path fill="#3F8EB9" d="M17.874 15.488a.783.783 0 1 0 0-1.566.783.783 0 0 0 0 1.566"/><path fill="#DC6E32" d="M8 7.603a.783.783 0 1 0 0-1.567.783.783 0 0 0 0 1.567"/><path fill="#3F8EB9" d="M15.85 17.917a.586.586 0 1 0 0-1.172.586.586 0 0 0 0 1.172M12.836 19.07a.549.549 0 1 0 0-1.098.549.549 0 0 0 0 1.098M9.62 18.474a.429.429 0 1 0 0-.857.429.429 0 0 0 0 .857"/><path fill="#CC3D27" d="M6.72 17.006a.942.942 0 1 0 0-1.885.942.942 0 0 0 0 1.885"/><path fill="#CB362A" d="M5.37 13.986a1.01 1.01 0 1 0 0-2.02 1.01 1.01 0 0 0 0 2.02"/></g><defs><clipPath id="a"><path fill="#fff" d="M0 0h24v24H0z"/></clipPath></defs></svg>
